X: 139
T: No_73_In_the_Blue_Night.krn
N: Derived from No_73_In_the_Blue_Night.krn
%%abc-version 2.0
%%abcx-abcm2ps-target-version 5.9.1 (29 Sep 2008)
%%abc-creator hum2abc beta
%%abcx-conversion-date 2019/03/15 08:37:56
%%humdrum-veritas 2589030174
%%humdrum-veritas-data 1262057273
%%linebreak <none>
%%barnumbers 0
L: 1/8
M: 2/4
K: Bb clef=bass
[K:clef=bass][M:2/4]F,2D2 ||  
[M:3/8]D2B, | 
C2C | 
B,2F, | 
B,B,B, ||  
[M:2/4]B,2B,2 | 
B,2z2 ]|:  
B,2C2 ||  
[M:3/8]B,2F, | 
(G,F,)F, | 
F,2D, | 
F,F,F, ||  
[M:2/4]F,2F,2 ||  
[M:3/4]F,2z2B,2 ||  
[M:3/8]CCC ||  
[M:2/4]C2C2 ||  
[M:3/8]B,B,B, ||  
[M:2/4]B,2G,F, ||  
[M:3/4]F,2D,2G,F, ||  
[M:3/8]F,2D, | 
F,2F, | 
D,2D, ||  
[M:2/4]F,F,- F,F, ||  
[M:3/8]F,2D, ||  
[M:2/4]F,2F,2 :|]  



